X:1
T:Title
%%score { 1 | 2 }
L:1/8
M:4/4
K:Eb
V:1 treble nm="Grand Piano"
V:2 bass 
V:1
 z4 z2[Q:1/4=100] E2 | G2 GG G2 EG | [GB]2 [GB][GB] [EG]2 [GB][GB] | [Ac]2 [ce]2 [Bd]2 [Ac]2 | %4
 [GB]6 [GB]2 | [Ge]2 [Ge]2 [GB]2 [Ac][GB] | [EG]2 [B,DF]2 [G,CE]2 [G,CE]2 | %7
 [EG]2 [EG]<[EG] [EG]2 [DF]2 |[M:3/4] E6 |[M:1/4] G2 |[M:4/4] [GB]2 [GB]<[GB] [Ac]2 [GB]2 | %11
 [Ge]6 [GB]2 | [Ac]2 [Ac]<[ce] [Bd]2 [Ac]2 | [GB]6 [GB]2 | [Ge]2 [Ge]<[Ge] [GB]2 [Ac][GB] | %15
 [EG]2 [B,DF]2 [G,CE]2 [G,CE]2 | [B,EG]2 [B,EG]<[B,EG] [B,EG]2 [A,DF]2 |[M:3/4] [G,E]6 |] %18
V:2
 z4 z2 [E,G,B,]2 | [E,B,E]2 [E,B,E][E,B,E] [E,B,E]2 [E,G,B,][E,B,E] | %2
 [E,E]2 [E,E][E,E] [E,B,]2 [E,E][E,E] | [A,E]2 [A,E]2 [A,E]2 [A,E]2 | [E,E]6 [E,E]2 | %5
 [E,B,]2 [E,B,]2 [E,E]2 [E,E][E,E] | B,,2 B,,2 C,2 C,2 | %7
 [B,,B,]2 [B,,B,]<[B,,B,] [B,,B,]2 [B,,A,]2 |[M:3/4] [E,G,]6 |[M:1/4] [E,B,E]2 | %10
[M:4/4] [E,E]2 [E,E]<[E,E] [E,E]2 [E,E]2 | [E,B,]6 [E,E]2 | [A,E]2 [A,E]<[A,E] [A,E]2 [A,E]2 | %13
 [E,E]6 [E,E]2 | [E,B,]2 [E,B,]<[E,B,] [E,E]2 [E,E][E,E] | B,,2 B,,2 C,2 C,2 | %16
 B,,2 B,,<B,, B,,2 B,,2 |[M:3/4] E,6 |] %18

